poi/svg/1814.svg

<?xml version="1.0" encoding="UTF-8" standalone="no"?>
<svg
   xmlns:dc="http://purl.org/dc/elements/1.1/"
   xmlns:cc="http://creativecommons.org/ns#"
   xmlns:rdf="http://www.w3.org/1999/02/22-rdf-syntax-ns#"
   xmlns:svg="http://www.w3.org/2000/svg"
   xmlns="http://www.w3.org/2000/svg"
   xmlns:sodipodi="http://sodipodi.sourceforge.net/DTD/sodipodi-0.dtd"
   xmlns:inkscape="http://www.inkscape.org/namespaces/inkscape"
   inkscape:version="1.0 (4035a4fb49, 2020-05-01)"
   sodipodi:docname="1814.svg"
   id="svg20"
   version="1.2"
   viewBox="0 0 42.519639 42.519639"
   height="14.999999mm"
   width="14.999999mm">
  <metadata
     id="metadata24">
    <rdf:RDF>
      <cc:Work
         rdf:about="">
        <dc:format>image/svg+xml</dc:format>
        <dc:type
           rdf:resource="http://purl.org/dc/dcmitype/StillImage" />
        <dc:title>Qt SVG Document</dc:title>
      </cc:Work>
    </rdf:RDF>
  </metadata>
  <sodipodi:namedview
     inkscape:current-layer="svg20"
     inkscape:window-maximized="0"
     inkscape:window-y="0"
     inkscape:window-x="0"
     inkscape:cy="28.346482"
     inkscape:cx="28.346482"
     inkscape:zoom="5.8410537"
     showgrid="false"
     id="namedview22"
     inkscape:window-height="480"
     inkscape:window-width="1034"
     inkscape:pageshadow="2"
     inkscape:pageopacity="0"
     guidetolerance="10"
     gridtolerance="10"
     objecttolerance="10"
     borderopacity="1"
     bordercolor="#666666"
     pagecolor="#ffffff" />
  <title
     id="title2">Qt SVG Document</title>
  <desc
     id="desc4">Generated with Qt</desc>
  <defs
     id="defs6" />
  <g
     transform="translate(5.25984,5.25984)"
     id="g18"
     stroke-linejoin="bevel"
     stroke-linecap="square"
     fill-rule="evenodd"
     stroke-width="1"
     stroke="#000000"
     fill="none">
    <g
       id="g10"
       font-style="normal"
       font-weight="400"
       font-size="7.8px"
       font-family="'MS Shell Dlg 2'"
       stroke="none"
       fill-opacity="1"
       fill="#a61215">
      <path
         id="path8"
         d="M 37.2598,16 C 37.2598,27.7415 27.7415,37.2598 16,37.2598 4.25851,37.2598 -5.25984,27.7415 -5.25984,16 -5.25984,4.25851 4.25851,-5.25984 16,-5.25984 27.7415,-5.25984 37.2598,4.25851 37.2598,16"
         fill-rule="evenodd"
         vector-effect="non-scaling-stroke" />
    </g>
    <g
       id="g14"
       font-style="normal"
       font-weight="400"
       font-size="7.8px"
       font-family="'MS Shell Dlg 2'"
       transform="translate(16,11.4646)"
       stroke="none"
       fill-opacity="0.94902"
       fill="#ffffff">
      <path
         id="path12"
         d="M 5.17725,-0.76123 5.84912,18.0723 H -5.80371 L -5.11084,-0.76123 H 5.17725 M 1.33496,9.35889 V 3.08105 C 1.33496,2.67513 1.21248,2.34269 0.967529,2.08374 0.722575,1.82479 0.432129,1.69531 0.0961914,1.69531 -0.309733,1.69531 -0.642171,1.82479 -0.901123,2.08374 -1.16007,2.34269 -1.28955,2.67513 -1.28955,3.08105 V 9.35889 H 1.33496 M 6.83594,-6.8501 6.16406,-6.09424 v 3.67432 H 4.8623 V -4.18359 C 4.8623,-4.44954 4.76432,-4.6665 4.56836,-4.83447 4.3724,-5.00244 4.11344,-5.08643 3.7915,-5.08643 c -0.22395,0 -0.44441,0.08399 -0.66137,0.25196 -0.21696,0.16797 -0.32544,0.38493 -0.32544,0.65088 v 1.76367 H 1.04102 v -1.76367 c 0,-0.26595 -0.101485,-0.48291 -0.304448,-0.65088 C 0.53361,-5.00244 0.32015,-5.08643 0.0961914,-5.08643 c -0.3219404,0 -0.5878904,0.08399 -0.7978514,0.25196 -0.209961,0.16797 -0.31494,0.38493 -0.31494,0.65088 v 1.76367 h -1.76367 v -1.76367 c 0,-0.26595 -0.10148,-0.48291 -0.30445,-0.65088 -0.20296,-0.16797 -0.41642,-0.25196 -0.64038,-0.25196 -0.32194,0 -0.59139,0.08399 -0.80835,0.25196 -0.21696,0.16797 -0.32544,0.38493 -0.32544,0.65088 v 1.76367 H -6.09766 V -6.09424 L -6.79053,-6.8501 0.0961914,-9.22266 6.83594,-6.8501"
         fill-rule="evenodd"
         vector-effect="none" />
    </g>
    <g
       id="g16"
       font-style="normal"
       font-weight="400"
       font-size="7.8px"
       font-family="'MS Shell Dlg 2'"
       stroke="none"
       fill-opacity="1"
       fill="#a61215" />
  </g>
</svg>

<?xml version="1.0" encoding="UTF-8" standalone="no"?>
<svg width="11.2889mm" height="11.2889mm"
 viewBox="0 0 32 32"
 xmlns="http://www.w3.org/2000/svg" xmlns:xlink="http://www.w3.org/1999/xlink"  version="1.2" baseProfile="tiny">
<title>Qt SVG Document</title>
<desc>Generated with Qt</desc>
<defs>
</defs>
<g fill="none" stroke="black" stroke-width="1" fill-rule="evenodd" stroke-linecap="square" stroke-linejoin="bevel" >

<g fill="#a61215" fill-opacity="1" stroke="none" transform="matrix(1,0,0,1,0,0)"
font-family="MS Shell Dlg 2" font-size="7.8" font-weight="400" font-style="normal" 
>
<path vector-effect="non-scaling-stroke" fill-rule="evenodd" d="M37.2598,16 C37.2598,27.7415 27.7415,37.2598 16,37.2598 C4.25851,37.2598 -5.25984,27.7415 -5.25984,16 C-5.25984,4.25851 4.25851,-5.25984 16,-5.25984 C27.7415,-5.25984 37.2598,4.25851 37.2598,16 "/>
</g>

<g fill="#ffffff" fill-opacity="0.94902" stroke="none" transform="matrix(1,0,0,1,16,11.4646)"
font-family="MS Shell Dlg 2" font-size="7.8" font-weight="400" font-style="normal" 
>
<path vector-effect="none" fill-rule="evenodd" d="M5.17725,-0.76123 L5.84912,18.0723 L-5.80371,18.0723 L-5.11084,-0.76123 L5.17725,-0.76123 M1.33496,9.35889 L1.33496,3.08105 C1.33496,2.67513 1.21248,2.34269 0.967529,2.08374 C0.722575,1.82479 0.432129,1.69531 0.0961914,1.69531 C-0.309733,1.69531 -0.642171,1.82479 -0.901123,2.08374 C-1.16007,2.34269 -1.28955,2.67513 -1.28955,3.08105 L-1.28955,9.35889 L1.33496,9.35889 M6.83594,-6.8501 L6.16406,-6.09424 L6.16406,-2.41992 L4.8623,-2.41992 L4.8623,-4.18359 C4.8623,-4.44954 4.76432,-4.6665 4.56836,-4.83447 C4.3724,-5.00244 4.11344,-5.08643 3.7915,-5.08643 C3.56755,-5.08643 3.34709,-5.00244 3.13013,-4.83447 C2.91317,-4.6665 2.80469,-4.44954 2.80469,-4.18359 L2.80469,-2.41992 L1.04102,-2.41992 L1.04102,-4.18359 C1.04102,-4.44954 0.939535,-4.6665 0.736572,-4.83447 C0.53361,-5.00244 0.32015,-5.08643 0.0961914,-5.08643 C-0.225749,-5.08643 -0.491699,-5.00244 -0.70166,-4.83447 C-0.911621,-4.6665 -1.0166,-4.44954 -1.0166,-4.18359 L-1.0166,-2.41992 L-2.78027,-2.41992 L-2.78027,-4.18359 C-2.78027,-4.44954 -2.88175,-4.6665 -3.08472,-4.83447 C-3.28768,-5.00244 -3.50114,-5.08643 -3.7251,-5.08643 C-4.04704,-5.08643 -4.31649,-5.00244 -4.53345,-4.83447 C-4.75041,-4.6665 -4.85889,-4.44954 -4.85889,-4.18359 L-4.85889,-2.41992 L-6.09766,-2.41992 L-6.09766,-6.09424 L-6.79053,-6.8501 L0.0961914,-9.22266 L6.83594,-6.8501"/>
</g>

<g fill="#a61215" fill-opacity="1" stroke="none" transform="matrix(1,0,0,1,0,0)"
font-family="MS Shell Dlg 2" font-size="7.8" font-weight="400" font-style="normal" 
>
</g>
</g>
</svg>
